X:1
T:Bryant, 86.86.88
T:Bryant, 86.86.88
T:Walter Galpin Alcock (1861-1947)
T:Public Domain Courtesy of the Cyber Hymnal™
C:Walter Galpin Alcock (1861-1947)
Z:Public Domain
Z:Courtesy of the Cyber Hymnal™
%%score ( 1 2 ) ( 3 4 )
L:1/8
Q:1/4=110
M:4/4
K:G
V:1 treble 
V:2 treble 
V:3 bass 
V:4 bass 
V:1
 D2 | D2 [DG]2 [DA]2 [GB]2 | [GB]2 [GA]2 [FA]2 [DA]2 | [DF]2 [DG]2 [EB]2 [FA]2 | G6 [GB]2 | %5
 [EA]2 [FB]2 [G^c]2 [Gd]2 | [Ge]2 [GA]2 [FA]2 [Dd]2 | [Dd]2 [DF]2 [DA]2 [^CG]2 | [DF]6 D2 | %9
 [DE]2 [DF]2 [DG]2 [DG]2 | [=FA]2 [GB]2 [Gc]2 [Gd]2 | [Ee]2 [Fe]2 [Gd]2 G2 | [GB]4 [FA]4 | G6 |] %14
V:2
 D2 | D2 x6 | x8 | x8 | G6 x2 | x8 | x8 | x8 | x6 D2 | x8 | x8 | x6 G2 | x8 | G6 |] %14
V:3
 D,2 | [G,B,]2 [G,B,]2 [G,C]2 [G,D]2 | [E,D]2 [A,^C]2 [D,D]2 [D,F,]2 | %3
 [C,A,]2 [B,,G,]2 [C,G,]2 [D,C]2 | [G,,B,]6 [G,D]2 | [G,^C]2 [F,D]2 [E,E]2 [D,B,]2 | %6
 [^C,A,]2 [C,E]2 [D,D]2 [B,,F,]2 | [A,,F,]2 [A,,A,]2 [A,,B,]2 [A,,A,]2 | [D,A,]6 D2 | %9
 D2 [CD]2 [B,D]2 [G,B,]2 | [=F,C]2 [F,D]2 [E,C]2 [D,B,]2 | [C,C]2 [C,A,]2 [B,,D]2 [E,^C]2 | %12
 [D,D]4 [D,C]4 | [G,,B,]6 |] %14
V:4
 D,2 | x8 | x8 | x8 | x8 | x8 | x8 | x8 | x6 D2 | D2 x6 | x8 | x8 | x8 | x6 |] %14

